styles/2/Numix/256/actions/custom-folder-new.svg

<?xml version="1.0" encoding="UTF-8" standalone="no"?>
<svg
   xmlns:dc="http://purl.org/dc/elements/1.1/"
   xmlns:cc="http://creativecommons.org/ns#"
   xmlns:rdf="http://www.w3.org/1999/02/22-rdf-syntax-ns#"
   xmlns:svg="http://www.w3.org/2000/svg"
   xmlns="http://www.w3.org/2000/svg"
   xmlns:sodipodi="http://sodipodi.sourceforge.net/DTD/sodipodi-0.dtd"
   xmlns:inkscape="http://www.inkscape.org/namespaces/inkscape"
   width="256"
   height="256"
   viewBox="0 0 256 256"
   id="svg2"
   version="1.1"
   inkscape:version="0.91 r"
   sodipodi:docname="custom-folder-new.svg">
  <metadata
     id="metadata14">
    <rdf:RDF>
      <cc:Work
         rdf:about="">
        <dc:format>image/svg+xml</dc:format>
        <dc:type
           rdf:resource="http://purl.org/dc/dcmitype/StillImage" />
      </cc:Work>
    </rdf:RDF>
  </metadata>
  <defs
     id="defs12" />
  <sodipodi:namedview
     pagecolor="#ffffff"
     bordercolor="#666666"
     borderopacity="1"
     objecttolerance="10"
     gridtolerance="10"
     guidetolerance="10"
     inkscape:pageopacity="0"
     inkscape:pageshadow="2"
     inkscape:window-width="1280"
     inkscape:window-height="969"
     id="namedview10"
     showgrid="false"
     inkscape:zoom="0.921875"
     inkscape:cx="130.16949"
     inkscape:cy="125.83051"
     inkscape:window-x="0"
     inkscape:window-y="0"
     inkscape:window-maximized="1"
     inkscape:current-layer="svg2" />
  <path
     style="fill:replacecolour1;fill-opacity:1;stroke:none"
     d="m 36,30 c -5.85566,0 -12,6 -12,12 l 0,4 -12,0 C 6.1196,46 0,51.98132 0,58 l 0,156 c 0,8 4,12 12,12 l 232,0 c 6.27046,0 12,-5.43338 12,-12 l 0,-136 c 0,-6.01972 -5.82016,-12 -12,-12 l -12,0 0,-24 c 0,-5.84462 -5.81288,-12 -12,-12 z"
     id="path6-6"
     inkscape:connector-curvature="0"
     sodipodi:nodetypes="ssccssssscccsss" />
  <path
     sodipodi:nodetypes="sscsssssssscsssssscssssssss"
     inkscape:connector-curvature="0"
     style="fill:replacecolour2;fill-opacity:1.;stroke:none"
     d="m 36,30 c -5.85566,0 -12,6 -12,12 l 0,4 -12,0 C 6.1196,46 0,51.98132 0,58 l 0,156 c 0,8 4,12 12,12 l 232,0 c 6.27046,0 12,-5.43338 12,-12 l 0,-136 c 0,-6.01972 -5.82016,-12 -12,-12 l -12,0 0,-24 c 0,-5.84462 -5.81288,-12 -12,-12 z m -24,24 136,0 c 2.3607,0 4,2.05908 4,4 l 0,16 92,0 c 2.0222,0 4,2.03496 4,4 l 0,136 c 0,2.08516 -1.91506,4 -4,4 l -232,0 c -1.85718,0 -4,-1.58538 -4,-4 L 8,58 c 0,-1.96962 2.06612,-4 4,-4 z"
     id="path3778" />
  <path
     style="fill:#859900"
     d="M 256 149.332031 L 202.667969 149.332031 L 202.667969 96 L 149.332031 96 L 149.332031 149.332031 L 96 149.332031 L 96 202.667969 L 149.332031 202.667969 L 149.332031 256 L 202.667969 256 L 202.667969 202.667969 L 256 202.667969 Z "
     id="path8" />
</svg>

<svg xmlns="http://www.w3.org/2000/svg" viewBox="0 0 256 256">
 <path d="m 36 30 c -5.856 0 -12 6 -12 12 l 0 4 -12 0 c -5.88 0 -12 5.981 -12 12 l 0 156 c 0 8 4 12 12 12 l 232 0 c 6.27 0 12 -5.433 12 -12 l 0 -136 c 0 -6.02 -5.82 -12 -12 -12 l -12 0 0 -24 c 0 -5.845 -5.813 -12 -12 -12 z" style="fill:replacecolour1;fill-opacity:1;stroke:none"/>
 <path d="m 36 30 c -5.856 0 -12 6 -12 12 l 0 4 -12 0 c -5.88 0 -12 5.981 -12 12 l 0 156 c 0 8 4 12 12 12 l 232 0 c 6.27 0 12 -5.433 12 -12 l 0 -136 c 0 -6.02 -5.82 -12 -12 -12 l -12 0 0 -24 c 0 -5.845 -5.813 -12 -12 -12 z m -24 24 136 0 c 2.361 0 4 2.059 4 4 l 0 16 92 0 c 2.022 0 4 2.035 4 4 l 0 136 c 0 2.085 -1.915 4 -4 4 l -232 0 c -1.857 0 -4 -1.585 -4 -4 l 0 -156 c 0 -1.97 2.066 -4 4 -4 z" style="fill:replacecolour2;fill-opacity:1;stroke:none"/>
 <path d="m 256 149.33 l -53.33 0 l 0 -53.33 l -53.34 0 l 0 53.33 l -53.33 0 l 0 53.34 l 53.33 0 l 0 53.33 l 53.34 0 l 0 -53.33 l 53.33 0 Z" style="fill:#859900"/>
</svg>
